X:85
%%NRChange 2016-08-16
T:Steffaleken
T:R\/orospols
R:R\/orospols
C:efter Steffa Henningsgaard
N:
B:
D:
O:Norway
Z: 1997 by John Chambers <jc@trillian.mit.edu>
M:3/4
L:1/16
K:D
|: "D"{A}vd4 ud-c3 vA3ue | f4 f-d3 e3f | "A7"((3:4geg) "(D)"((3:4fdf) "(A)"e3c | "D"((3:4def) d-c3 "A7"A3c | 
   "D"   d4 d-c3 A3e | f4 f-d3 e3f | "A7"((3:4geg) "(D)"((3:4fdf) "(A)"e3c | "D"vd4 ud8 :|
|: "A7"a4 a-f3 g3e | "D"f4 f-d3 e3f | "A7"((3:4geg) "(D)"((3:4fdf) "(A)"e3c | "D"((3:4def) d-c3 "A7"A3A |
   "A7"a4 a-f3 g3e | "D"f4 f-d3 e3f | "A7"((3:4geg) "(D)"((3:4fdf) "(A)"e3c | "D"vd4 ud8 :|

